X: 214
T: Jieme guandeng
%%abc-version 2.0
%%abcx-abcm2ps-target-version 5.9.1 (29 Sep 2008)
%%abc-creator hum2abc beta
%%abcx-conversion-date 2013/10/02 07:52:29
%%abc-edited-by Helmut Schaffrath
%%humdrum-veritas 2999875335
%%humdrum-veritas-data 431076285
%%continueall 1
%%barnumbers 0
L: 1/8
M: 2/4
K: D
B d F A [I:setbarnb 1]| 
B3A | 
B3A | 
B2z2 | 
B2B d | 
B A F A | 
B2z2 | 
f3e | 
d3f | 
B A E F | 
f Bd2 | 
f BA2 | 
dF2E | 
F2z2 | 
d2D2 | 
D3E | 
F E F z | 
B2B d | 
B A F A | 
B2z2 | 
B d F A | 
B3d | 
D4 | 
A B A F | 
E2E2 | 
A B A F | 
E F A A | 
B AD2 | 
EB,2A, | 
B,3C | 
B,2z2 |]  



